static/assets/template/assets/img/icons/essential/detailed/Charger.svg

<svg height="143" viewBox="0 0 149 143" width="149" xmlns="http://www.w3.org/2000/svg"><g fill="none" fill-rule="evenodd" transform="translate(2 2)"><path d="m6.4 21.1v-17.8c0-1.7 1.4-3.2 3.2-3.2h23.1c1.7 0 3.2 1.4 3.2 3.2v17.9" fill-rule="nonzero"/><path d="m118.7 34.5v-12.4c0-1.3 1-2.3 2.3-2.3h16.8c1.3 0 2.3 1 2.3 2.3v12.4" fill-rule="nonzero"/><path d="m15.8 21.2h1.7" fill-rule="nonzero"/><path d="m17.5 21.2h20.1c2.5 0 4.5 2 4.5 4.5v39.6c0 2.5-2 4.5-4.5 4.5h-33c-2.5 0-4.5-2-4.5-4.5v-39.6c0-2.5 2-4.5 4.5-4.5h4.5" fill-rule="nonzero"/><path d="m141.4 69.7h-23.9c-1.8 0-3.3-1.5-3.3-3.3v-28.7c0-1.8 1.5-3.3 3.3-3.3h23.9c1.8 0 3.3 1.5 3.3 3.3v28.7c-.1 1.9-1.5 3.3-3.3 3.3z" fill-rule="nonzero"/><path d="m38.1 69.8h-30.5c-2.3 0-4.1-1.8-4.1-4.1v-35.4c0-2.3 1.8-4.1 4.1-4.1h30.5c2.3 0 4.1 1.8 4.1 4.1v35.4c0 2.3-1.9 4.1-4.1 4.1z" fill="#c1ddfe" fill-rule="nonzero"/><path d="m141.8 69.7h-21c-1.6 0-2.9-1.3-2.9-2.9v-25.1c0-1.6 1.3-2.9 2.9-2.9h21c1.6 0 2.9 1.3 2.9 2.9v25.1c-.1 1.6-1.4 2.9-2.9 2.9z" fill="#c1ddfe" fill-rule="nonzero"/><g stroke-linecap="round" stroke-linejoin="round" stroke-width="3.2"><circle cx="75.2" cy="102.2" r="36.9"/><path d="m129.2 69.7v15.6c0 29.8-24.2 53.9-53.9 53.9-29.8 0-53.9-24.2-53.9-53.9v-15.5"/><path d="m18.5 21.2h19.1c2.5 0 4.5 2 4.5 4.5v39.6c0 2.5-2 4.5-4.5 4.5h-33c-2.5 0-4.5-2-4.5-4.5v-39.6c0-2.5 2-4.5 4.5-4.5h3.5"/><path d="m13.6 21.2h.2"/><path d="m6.4 21.1v-17.8c0-1.7 1.4-3.2 3.2-3.2h23.1c1.7 0 3.2 1.4 3.2 3.2v17.9"/><path d="m141.4 69.7h-23.9c-1.8 0-3.3-1.5-3.3-3.3v-28.7c0-1.8 1.5-3.3 3.3-3.3h23.9c1.8 0 3.3 1.5 3.3 3.3v28.7c-.1 1.9-1.5 3.3-3.3 3.3z"/><path d="m118.7 26.4v-4.3c0-1.3 1-2.3 2.3-2.3h16.8c1.3 0 2.3 1 2.3 2.3v12.4"/><path d="m86.9 99.7-14.5 19.9c-.5.7-1.7.3-1.6-.6l1.8-12.6h-7.4c-.7 0-1.2-.8-.7-1.4l1.7-2.3 12.8-17.6c.5-.7 1.7-.3 1.6.7l-2 12.7 7.5-.1c.2 0 .4.1.5.2.5.1.6.6.3 1.1z"/><path d="m15.6 7.7v6.6"/><path d="m26.4 7.7v6.6"/></g></g></svg>

<?xml version="1.0" encoding="UTF-8"?>
<svg width="149px" height="143px" viewBox="0 0 149 143" version="1.1" xmlns="http://www.w3.org/2000/svg" xmlns:xlink="http://www.w3.org/1999/xlink">
    <!-- Generator: Sketch 51.2 (57519) - http://www.bohemiancoding.com/sketch -->
    <title>Charger</title>
    <desc>Created with Sketch.</desc>
    <defs></defs>
    <g id="Page-1" stroke="none" stroke-width="1" fill="none" fill-rule="evenodd">
        <g id="Charger" transform="translate(2.000000, 2.000000)">
            <path d="M6.4,21.1 L6.4,3.3 C6.4,1.6 7.8,0.1 9.6,0.1 L32.7,0.1 C34.4,0.1 35.9,1.5 35.9,3.3 L35.9,21.2" id="Shape" class="fill-neutral" fill-rule="nonzero"></path>
            <path d="M118.7,34.5 L118.7,22.1 C118.7,20.8 119.7,19.8 121,19.8 L137.8,19.8 C139.1,19.8 140.1,20.8 140.1,22.1 L140.1,34.5" id="Shape" class="fill-neutral" fill-rule="nonzero"></path>
            <path d="M15.8,21.2 L17.5,21.2" id="Shape" class="fill-neutral" fill-rule="nonzero"></path>
            <path d="M17.5,21.2 L37.6,21.2 C40.1,21.2 42.1,23.2 42.1,25.7 L42.1,65.3 C42.1,67.8 40.1,69.8 37.6,69.8 L4.6,69.8 C2.1,69.8 0.1,67.8 0.1,65.3 L0.1,25.7 C0.1,23.2 2.1,21.2 4.6,21.2 L9.1,21.2" id="Shape" class="fill-neutral" fill-rule="nonzero"></path>
            <path d="M141.4,69.7 L117.5,69.7 C115.7,69.7 114.2,68.2 114.2,66.4 L114.2,37.7 C114.2,35.9 115.7,34.4 117.5,34.4 L141.4,34.4 C143.2,34.4 144.7,35.9 144.7,37.7 L144.7,66.4 C144.6,68.3 143.2,69.7 141.4,69.7 Z" id="Shape" class="fill-neutral" fill-rule="nonzero"></path>
            <path d="M38.1,69.8 L7.6,69.8 C5.3,69.8 3.5,68 3.5,65.7 L3.5,30.3 C3.5,28 5.3,26.2 7.6,26.2 L38.1,26.2 C40.4,26.2 42.2,28 42.2,30.3 L42.2,65.7 C42.2,68 40.3,69.8 38.1,69.8 Z" id="Shape" fill="#C1DDFE" fill-rule="nonzero"></path>
            <path d="M141.8,69.7 L120.8,69.7 C119.2,69.7 117.9,68.4 117.9,66.8 L117.9,41.7 C117.9,40.1 119.2,38.8 120.8,38.8 L141.8,38.8 C143.4,38.8 144.7,40.1 144.7,41.7 L144.7,66.8 C144.6,68.4 143.3,69.7 141.8,69.7 Z" id="Shape" fill="#C1DDFE" fill-rule="nonzero"></path>
            <circle id="Oval" class="stroke-primary" stroke-width="3.2" stroke-linecap="round" stroke-linejoin="round" cx="75.2" cy="102.2" r="36.9"></circle>
            <path d="M129.2,69.7 L129.2,85.3 C129.2,115.1 105,139.2 75.3,139.2 C45.5,139.2 21.4,115 21.4,85.3 L21.4,69.8" id="Shape" class="stroke-primary" stroke-width="3.2" stroke-linecap="round" stroke-linejoin="round"></path>
            <path d="M18.5,21.2 L37.6,21.2 C40.1,21.2 42.1,23.2 42.1,25.7 L42.1,65.3 C42.1,67.8 40.1,69.8 37.6,69.8 L4.6,69.8 C2.1,69.8 0.1,67.8 0.1,65.3 L0.1,25.7 C0.1,23.2 2.1,21.2 4.6,21.2 L8.1,21.2" id="Shape" class="stroke-primary" stroke-width="3.2" stroke-linecap="round" stroke-linejoin="round"></path>
            <path d="M13.6,21.2 L13.8,21.2" id="Shape" class="stroke-primary" stroke-width="3.2" stroke-linecap="round" stroke-linejoin="round"></path>
            <path d="M6.4,21.1 L6.4,3.3 C6.4,1.6 7.8,0.1 9.6,0.1 L32.7,0.1 C34.4,0.1 35.9,1.5 35.9,3.3 L35.9,21.2" id="Shape" class="stroke-primary" stroke-width="3.2" stroke-linecap="round" stroke-linejoin="round"></path>
            <path d="M141.4,69.7 L117.5,69.7 C115.7,69.7 114.2,68.2 114.2,66.4 L114.2,37.7 C114.2,35.9 115.7,34.4 117.5,34.4 L141.4,34.4 C143.2,34.4 144.7,35.9 144.7,37.7 L144.7,66.4 C144.6,68.3 143.2,69.7 141.4,69.7 Z" id="Shape" class="stroke-primary" stroke-width="3.2" stroke-linecap="round" stroke-linejoin="round"></path>
            <path d="M118.7,26.4 L118.7,22.1 C118.7,20.8 119.7,19.8 121,19.8 L137.8,19.8 C139.1,19.8 140.1,20.8 140.1,22.1 L140.1,34.5" id="Shape" class="stroke-primary" stroke-width="3.2" stroke-linecap="round" stroke-linejoin="round"></path>
            <path d="M86.9,99.7 L72.4,119.6 C71.9,120.3 70.7,119.9 70.8,119 L72.6,106.4 L65.2,106.4 C64.5,106.4 64,105.6 64.5,105 L66.2,102.7 L79,85.1 C79.5,84.4 80.7,84.8 80.6,85.8 L78.6,98.5 L86.1,98.4 C86.3,98.4 86.5,98.5 86.6,98.6 C87.1,98.7 87.2,99.2 86.9,99.7 Z" id="Shape" class="stroke-primary" stroke-width="3.2" stroke-linecap="round" stroke-linejoin="round"></path>
            <path d="M15.6,7.7 L15.6,14.3" id="Shape" class="stroke-primary" stroke-width="3.2" stroke-linecap="round" stroke-linejoin="round"></path>
            <path d="M26.4,7.7 L26.4,14.3" id="Shape" class="stroke-primary" stroke-width="3.2" stroke-linecap="round" stroke-linejoin="round"></path>
        </g>
    </g>
</svg>
